X:976
T:Reel 976
M:4/4
K:Gmaj
L:1/8
e|d2dB dBAB|GB (3BAB dfgf|edBe dBAc|Bdef gbag|eded BAA2|ed (3BAA d2gf|edBA GAge|dBAc BGG|d|g2gd gbag|fd (3ddd agaf|gdgd gbag|fdef gbag|gbgb c'bag|faab c'afa| (3bc'd' e'c' agag| (3efg dc BGG|
